resources/svg/document.svg

<svg viewBox="0 0 24 24"><path fill="none" stroke="currentColor" stroke-width="2" d="M14 1v7h7m0 15H3V1h12l3 3l3 3v16h0z"/></svg>

<svg xmlns="http://www.w3.org/2000/svg" viewBox="0 0 24 24" fill="currentColor"><path fill="none" stroke="currentColor" stroke-width="2" d="M14,1 L14,8 L21,8 M21,23 L3,23 L3,1 L15,1 L18,4 L21,7 L21,23 L21,23 L21,23 Z"/></svg>
